Newaita-dark/apps/48/lastpass.svg

<svg height="48" viewBox="0 0 48 48" width="48" xmlns="http://www.w3.org/2000/svg" xmlns:xlink="http://www.w3.org/1999/xlink"><linearGradient id="a"><stop offset="0" stop-opacity=".313726"/><stop offset=".222222" stop-opacity=".27451"/><stop offset="1" stop-opacity="0"/></linearGradient><radialGradient id="b" cx="450.908936" cy="189.579361" gradientTransform="matrix(.00000026 -.117199 -.210958 -.00000015 66.784728 95.392994)" gradientUnits="userSpaceOnUse" r="21.166656" xlink:href="#a"/><radialGradient id="c" cx="450.908936" cy="189.579361" gradientTransform="matrix(-.00000026 .117199 .210958 .00000015 -19.155178 -11.291223)" gradientUnits="userSpaceOnUse" r="21.166656" xlink:href="#a"/><radialGradient id="d" cx="450.908936" cy="189.579361" gradientTransform="matrix(-.00000026 -.117199 .210958 -.00000015 -19.155178 95.392994)" gradientUnits="userSpaceOnUse" r="21.166656" xlink:href="#a"/><radialGradient id="e" cx="450.908936" cy="189.579361" gradientTransform="matrix(.00000026 .117199 -.210958 .00000015 66.784725 -11.291224)" gradientUnits="userSpaceOnUse" r="21.166656" xlink:href="#a"/><linearGradient id="f" gradientTransform="matrix(.0200401 0 0 .093759 18.698079 20.158175)" gradientUnits="userSpaceOnUse" x1="255.323059" x2="255.323044" y1="233.5" y2="254.666656"><stop offset="0" stop-opacity=".27451"/><stop offset="1" stop-opacity="0"/></linearGradient><linearGradient id="g" gradientUnits="userSpaceOnUse" x1="254" x2="254" y1="-168.666672" y2="233.5"><stop offset="0" stop-color="#e57373"/><stop offset="1" stop-color="#ef5350"/></linearGradient><linearGradient id="h" gradientTransform="matrix(.0811976 .0468795 -.0468795 .0811976 4.71024 8.657982)" gradientUnits="userSpaceOnUse" x1="354.541779" x2="153.45845" y1="206.559921" y2="-141.726639"><stop offset="0" stop-color="#e0e0e0"/><stop offset="1" stop-color="#eee"/></linearGradient><path d="m27.289062 42.050781h3.96875v-1.984375h-3.96875zm0 0" fill="url(#b)"/><path d="m20.339844 42.050781h-3.96875v1.984375h3.96875zm0 0" fill="url(#c)"/><path d="m20.339844 42.050781h-3.96875v-1.984375h3.96875zm0 0" fill="url(#d)"/><path d="m27.289062 42.050781h3.96875v1.984375h-3.96875zm0 0" fill="url(#e)"/><path d="m20.339844 41.554688h6.949218v2.480468h-6.949218zm0 0" fill="url(#f)"/><path d="m254.017409-168.671091c111.031064 0 201.064133 90.033069 201.064133 201.105795 0 111.031064-90.033069 201.064133-201.064133 201.064133-111.072726 0-201.105795-90.033069-201.105795-201.064133 0-111.072726 90.033069-201.105795 201.105795-201.105795zm0 0" fill="url(#g)" stroke="#333" stroke-linecap="round" stroke-width="3" transform="matrix(.093759 0 0 .093759 0 20.158175)"/><path d="m23.816406 41.925781c-10.445312 0-18.855468-8.40625-18.855468-18.851562 0-.0625 0-.125 0-.183594.101562 10.355469 8.472656 18.667969 18.855468 18.667969 10.382813 0 18.753906-8.3125 18.851563-18.667969v.183594c0 10.445312-8.410157 18.851562-18.851563 18.851562zm0 0" fill-opacity=".196078"/><path d="m23.816406 4.46875c-10.445312 0-18.855468 8.40625-18.855468 18.851562v.1875c.101562-10.359374 8.472656-18.671874 18.855468-18.671874 10.382813 0 18.753906 8.3125 18.851563 18.671874 0-.0625 0-.125 0-.1875 0-10.445312-8.410157-18.851562-18.851563-18.851562zm0 0" fill="#fff" fill-opacity=".392157"/><path d="m23.816406 4.203125c-10.523437 0-18.996094 8.472656-18.996094 18.996094 0 10.519531 8.472657 18.992187 18.996094 18.992187 10.519532 0 18.992188-8.472656 18.992188-18.992187 0-10.523438-8.472656-18.996094-18.992188-18.996094zm0 .28125c10.367188 0 18.710938 8.34375 18.710938 18.714844 0 10.367187-8.34375 18.710937-18.710938 18.710937-10.371094 0-18.714844-8.34375-18.714844-18.710937 0-10.371094 8.34375-18.714844 18.714844-18.714844zm0 0" fill="#212121"/><path d="m28.414062 13.25c-.953124-.550781-2.164062-.226562-2.710937.726562l-1.886719 3.265626-1.890625-3.265626c-.546875-.953124-1.757812-1.277343-2.710937-.726562l-1.71875.992188c-.949219.546874-1.273438 1.757812-.726563 2.710937l1.890625 3.265625h-3.777344c-1.097656 0-1.984374.886719-1.984374 1.988281v1.984375c0 1.097656.886718 1.984375 1.984374 1.984375h3.777344l-1.890625 3.265625c-.546875.953125-.222656 2.164063.726563 2.710938l1.71875.992187c.953125.550781 2.164062.226563 2.710937-.722656l1.890625-3.269531 1.886719 3.269531c.546875.949219 1.757813 1.273437 2.710937.722656l1.71875-.992187c.949219-.546875 1.273438-1.757813.726563-2.710938l-1.886719-3.265625h3.773438c1.097656 0 1.984375-.886719 1.984375-1.984375v-1.984375c0-1.101562-.886719-1.988281-1.984375-1.988281h-3.773438l1.886719-3.265625c.546875-.953125.222656-2.164063-.726563-2.710937zm0 0" fill="url(#h)"/><path d="m20.253906 12.980469c-.351562-.007813-.710937.078125-1.039062.269531l-1.71875.992188c-.753906.4375-1.113282 1.289062-.953125 2.101562.105469-.542969.4375-1.035156.953125-1.332031l1.71875-.992188c.953125-.550781 2.164062-.226562 2.710937.726563l1.890625 3.269531 1.886719-3.269531c.546875-.953125 1.757813-1.277344 2.710937-.726563l1.71875.992188c.515626.296875.847657.789062.953126 1.332031.164062-.8125-.195313-1.664062-.953126-2.101562l-1.71875-.992188c-.953124-.550781-2.164062-.226562-2.710937.726562l-1.886719 3.265626-1.890625-3.265626c-.359375-.625-1.003906-.980468-1.671875-.996093zm-5.371094 7.238281c-1.097656 0-1.984374.886719-1.984374 1.988281v.769531c0-1.101562.886718-1.984374 1.984374-1.984374h3.777344l-.445312-.769532zm14.53125 0-.441406.773438h3.773438c1.097656 0 1.984375.882812 1.984375 1.980468v-.765625c0-1.101562-.886719-1.984375-1.984375-1.984375zm-11.199218 6.726562-1.445313 2.496094c-.25.4375-.316406.925782-.226562 1.378906.039062-.207031.117187-.414062.226562-.605468l1.890625-3.269532zm10.757812 0 1.886719 3.269532c.109375.191406.1875.398437.226563.605468.089843-.453124.023437-.941406-.226563-1.378906l-1.445313-2.496094zm0 0" fill="#fff"/><path d="m31.0625 16.453125c-.042969.171875-.113281.339844-.203125.5l-1.886719 3.269531h.570313l1.316406-2.277344c.269531-.472656.328125-1.003906.203125-1.492187zm-14.496094 0c-.125.488281-.066406 1.019531.203125 1.492187l1.316407 2.277344h.574218l-1.890625-3.269531c-.089843-.160156-.15625-.328125-.203125-.5zm-3.667968 7.738281v.992188c0 1.097656.886718 1.984375 1.984374 1.984375h3.203126l.574218-.992188h-3.777344c-1.097656 0-1.984374-.886719-1.984374-1.984375zm21.832031 0c0 1.097656-.886719 1.984375-1.984375 1.984375h-3.773438l.570313.992188h3.203125c1.097656 0 1.984375-.886719 1.984375-1.984375zm-10.914063 4.960938-1.890625 3.269531c-.546875.949219-1.757812 1.273437-2.710937.722656l-1.71875-.992187c-.480469-.277344-.800782-.722656-.929688-1.21875-.21875.84375.140625 1.753906.929688 2.210937l1.71875.996094c.953125.546875 2.164062.222656 2.710937-.726563l1.890625-3.269531 1.886719 3.269531c.546875.949219 1.757813 1.273438 2.710937.726563l1.71875-.996094c.789063-.457031 1.148438-1.367187.929688-2.210937-.128906.496094-.449219.941406-.929688 1.21875l-1.71875.992187c-.953124.550781-2.164062.226563-2.710937-.722656zm0 0" fill-opacity=".235294"/><path d="m303.054393-73.680162c-10.165696-5.874439-23.081129-2.416436-28.913905 7.74926l-20.123079 34.830007-20.164741-34.830007c-5.832776-10.165696-18.748209-13.623699-28.913905-7.74926l-18.331583 10.582323c-10.124033 5.832776-13.582036 18.748209-7.74926 28.913905l20.164741 34.830007h-40.287819c-11.707216 0-21.164646 9.457431-21.164646 21.206309v21.164645c0 11.707216 9.45743 21.164646 21.164646 21.164646h40.287819l-20.164741 34.830007c-5.832776 10.165696-2.374773 23.081129 7.74926 28.913906l18.331583 10.582322c10.165696 5.874439 23.081129 2.416436 28.913905-7.707597l20.164741-34.87167 20.123079 34.87167c5.832776 10.124033 18.748209 13.582036 28.913905 7.707597l18.331583-10.582322c10.124033-5.832777 13.582036-18.74821 7.74926-28.913906l-20.123079-34.830007h40.246157c11.707216 0 21.164646-9.45743 21.164646-21.164646v-21.164645c0-11.748878-9.45743-21.206309-21.164646-21.206309h-40.246157l20.123079-34.830007c5.832776-10.165696 2.374773-23.081129-7.74926-28.913905zm0 0" fill="none" stroke="#212121" stroke-linecap="round" stroke-linejoin="round" stroke-width="3" transform="matrix(.093759 0 0 .093759 0 20.158175)"/></svg>

<?xml version="1.0" encoding="UTF-8"?>
<svg xmlns="http://www.w3.org/2000/svg" xmlns:xlink="http://www.w3.org/1999/xlink" width="48px" height="48px" viewBox="0 0 48 48" version="1.1">
<defs>
<radialGradient id="radial0" gradientUnits="userSpaceOnUse" cx="450.908936" cy="189.579361" fx="450.908936" fy="189.579361" r="21.166656" gradientTransform="matrix(0.000000261256,-0.117199,-0.210958,-0.000000152308,66.784728,95.392994)">
<stop offset="0" style="stop-color:rgb(0%,0%,0%);stop-opacity:0.313726;"/>
<stop offset="0.222222" style="stop-color:rgb(0%,0%,0%);stop-opacity:0.27451;"/>
<stop offset="1" style="stop-color:rgb(0%,0%,0%);stop-opacity:0;"/>
</radialGradient>
<radialGradient id="radial1" gradientUnits="userSpaceOnUse" cx="450.908936" cy="189.579361" fx="450.908936" fy="189.579361" r="21.166656" gradientTransform="matrix(-0.000000261256,0.117199,0.210958,0.000000152308,-19.155178,-11.291223)">
<stop offset="0" style="stop-color:rgb(0%,0%,0%);stop-opacity:0.313726;"/>
<stop offset="0.222222" style="stop-color:rgb(0%,0%,0%);stop-opacity:0.27451;"/>
<stop offset="1" style="stop-color:rgb(0%,0%,0%);stop-opacity:0;"/>
</radialGradient>
<radialGradient id="radial2" gradientUnits="userSpaceOnUse" cx="450.908936" cy="189.579361" fx="450.908936" fy="189.579361" r="21.166656" gradientTransform="matrix(-0.000000261256,-0.117199,0.210958,-0.000000152308,-19.155178,95.392994)">
<stop offset="0" style="stop-color:rgb(0%,0%,0%);stop-opacity:0.313726;"/>
<stop offset="0.222222" style="stop-color:rgb(0%,0%,0%);stop-opacity:0.27451;"/>
<stop offset="1" style="stop-color:rgb(0%,0%,0%);stop-opacity:0;"/>
</radialGradient>
<radialGradient id="radial3" gradientUnits="userSpaceOnUse" cx="450.908936" cy="189.579361" fx="450.908936" fy="189.579361" r="21.166656" gradientTransform="matrix(0.000000261256,0.117199,-0.210958,0.000000152308,66.784725,-11.291224)">
<stop offset="0" style="stop-color:rgb(0%,0%,0%);stop-opacity:0.313726;"/>
<stop offset="0.222222" style="stop-color:rgb(0%,0%,0%);stop-opacity:0.27451;"/>
<stop offset="1" style="stop-color:rgb(0%,0%,0%);stop-opacity:0;"/>
</radialGradient>
<linearGradient id="linear0" gradientUnits="userSpaceOnUse" x1="255.323059" y1="233.5" x2="255.323044" y2="254.666656" gradientTransform="matrix(0.0200401,0,0,0.093759,18.698079,20.158175)">
<stop offset="0" style="stop-color:rgb(0%,0%,0%);stop-opacity:0.27451;"/>
<stop offset="1" style="stop-color:rgb(0%,0%,0%);stop-opacity:0;"/>
</linearGradient>
<linearGradient id="linear1" gradientUnits="userSpaceOnUse" x1="254" y1="-168.666672" x2="254" y2="233.5" gradientTransform="matrix(1,0,0,1,0,0)">
<stop offset="0" style="stop-color:rgb(89.803922%,45.09804%,45.09804%);stop-opacity:1;"/>
<stop offset="1" style="stop-color:rgb(93.725491%,32.549021%,31.37255%);stop-opacity:1;"/>
</linearGradient>
<linearGradient id="linear2" gradientUnits="userSpaceOnUse" x1="354.541779" y1="206.559921" x2="153.45845" y2="-141.726639" gradientTransform="matrix(0.0811976,0.0468795,-0.0468795,0.0811976,4.71024,8.657982)">
<stop offset="0" style="stop-color:rgb(87.843138%,87.843138%,87.843138%);stop-opacity:1;"/>
<stop offset="1" style="stop-color:rgb(93.333334%,93.333334%,93.333334%);stop-opacity:1;"/>
</linearGradient>
</defs>
<g id="surface1">
<path style=" stroke:none;fill-rule:nonzero;fill:url(#radial0);" d="M 27.289062 42.050781 L 31.257812 42.050781 L 31.257812 40.066406 L 27.289062 40.066406 Z M 27.289062 42.050781 "/>
<path style=" stroke:none;fill-rule:nonzero;fill:url(#radial1);" d="M 20.339844 42.050781 L 16.371094 42.050781 L 16.371094 44.035156 L 20.339844 44.035156 Z M 20.339844 42.050781 "/>
<path style=" stroke:none;fill-rule:nonzero;fill:url(#radial2);" d="M 20.339844 42.050781 L 16.371094 42.050781 L 16.371094 40.066406 L 20.339844 40.066406 Z M 20.339844 42.050781 "/>
<path style=" stroke:none;fill-rule:nonzero;fill:url(#radial3);" d="M 27.289062 42.050781 L 31.257812 42.050781 L 31.257812 44.035156 L 27.289062 44.035156 Z M 27.289062 42.050781 "/>
<path style=" stroke:none;fill-rule:nonzero;fill:url(#linear0);" d="M 20.339844 41.554688 L 27.289062 41.554688 L 27.289062 44.035156 L 20.339844 44.035156 Z M 20.339844 41.554688 "/>
<path style="fill-rule:nonzero;fill:url(#linear1);stroke-width:3;stroke-linecap:round;stroke-linejoin:miter;stroke:rgb(20%,20%,20%);stroke-opacity:1;stroke-miterlimit:4;" d="M 254.017409 -168.671091 C 365.048473 -168.671091 455.081542 -78.638022 455.081542 32.434704 C 455.081542 143.465768 365.048473 233.498837 254.017409 233.498837 C 142.944683 233.498837 52.911614 143.465768 52.911614 32.434704 C 52.911614 -78.638022 142.944683 -168.671091 254.017409 -168.671091 Z M 254.017409 -168.671091 " transform="matrix(0.093759,0,0,0.093759,0,20.158175)"/>
<path style=" stroke:none;fill-rule:nonzero;fill:rgb(0%,0%,0%);fill-opacity:0.196078;" d="M 23.816406 41.925781 C 13.371094 41.925781 4.960938 33.519531 4.960938 23.074219 C 4.960938 23.011719 4.960938 22.949219 4.960938 22.890625 C 5.0625 33.246094 13.433594 41.558594 23.816406 41.558594 C 34.199219 41.558594 42.570312 33.246094 42.667969 22.890625 C 42.667969 22.949219 42.667969 23.011719 42.667969 23.074219 C 42.667969 33.519531 34.257812 41.925781 23.816406 41.925781 Z M 23.816406 41.925781 "/>
<path style=" stroke:none;fill-rule:nonzero;fill:rgb(100%,100%,100%);fill-opacity:0.392157;" d="M 23.816406 4.46875 C 13.371094 4.46875 4.960938 12.875 4.960938 23.320312 C 4.960938 23.382812 4.960938 23.445312 4.960938 23.507812 C 5.0625 13.148438 13.433594 4.835938 23.816406 4.835938 C 34.199219 4.835938 42.570312 13.148438 42.667969 23.507812 C 42.667969 23.445312 42.667969 23.382812 42.667969 23.320312 C 42.667969 12.875 34.257812 4.46875 23.816406 4.46875 Z M 23.816406 4.46875 "/>
<path style=" stroke:none;fill-rule:nonzero;fill:rgb(12.941177%,12.941177%,12.941177%);fill-opacity:1;" d="M 23.816406 4.203125 C 13.292969 4.203125 4.820312 12.675781 4.820312 23.199219 C 4.820312 33.71875 13.292969 42.191406 23.816406 42.191406 C 34.335938 42.191406 42.808594 33.71875 42.808594 23.199219 C 42.808594 12.675781 34.335938 4.203125 23.816406 4.203125 Z M 23.816406 4.484375 C 34.183594 4.484375 42.527344 12.828125 42.527344 23.199219 C 42.527344 33.566406 34.183594 41.910156 23.816406 41.910156 C 13.445312 41.910156 5.101562 33.566406 5.101562 23.199219 C 5.101562 12.828125 13.445312 4.484375 23.816406 4.484375 Z M 23.816406 4.484375 "/>
<path style=" stroke:none;fill-rule:nonzero;fill:url(#linear2);" d="M 28.414062 13.25 C 27.460938 12.699219 26.25 13.023438 25.703125 13.976562 L 23.816406 17.242188 L 21.925781 13.976562 C 21.378906 13.023438 20.167969 12.699219 19.214844 13.25 L 17.496094 14.242188 C 16.546875 14.789062 16.222656 16 16.769531 16.953125 L 18.660156 20.21875 L 14.882812 20.21875 C 13.785156 20.21875 12.898438 21.105469 12.898438 22.207031 L 12.898438 24.191406 C 12.898438 25.289062 13.785156 26.175781 14.882812 26.175781 L 18.660156 26.175781 L 16.769531 29.441406 C 16.222656 30.394531 16.546875 31.605469 17.496094 32.152344 L 19.214844 33.144531 C 20.167969 33.695312 21.378906 33.371094 21.925781 32.421875 L 23.816406 29.152344 L 25.703125 32.421875 C 26.25 33.371094 27.460938 33.695312 28.414062 33.144531 L 30.132812 32.152344 C 31.082031 31.605469 31.40625 30.394531 30.859375 29.441406 L 28.972656 26.175781 L 32.746094 26.175781 C 33.84375 26.175781 34.730469 25.289062 34.730469 24.191406 L 34.730469 22.207031 C 34.730469 21.105469 33.84375 20.21875 32.746094 20.21875 L 28.972656 20.21875 L 30.859375 16.953125 C 31.40625 16 31.082031 14.789062 30.132812 14.242188 Z M 28.414062 13.25 "/>
<path style=" stroke:none;fill-rule:nonzero;fill:rgb(100%,100%,100%);fill-opacity:1;" d="M 20.253906 12.980469 C 19.902344 12.972656 19.542969 13.058594 19.214844 13.25 L 17.496094 14.242188 C 16.742188 14.679688 16.382812 15.53125 16.542969 16.34375 C 16.648438 15.800781 16.980469 15.308594 17.496094 15.011719 L 19.214844 14.019531 C 20.167969 13.46875 21.378906 13.792969 21.925781 14.746094 L 23.816406 18.015625 L 25.703125 14.746094 C 26.25 13.792969 27.460938 13.46875 28.414062 14.019531 L 30.132812 15.011719 C 30.648438 15.308594 30.980469 15.800781 31.085938 16.34375 C 31.25 15.53125 30.890625 14.679688 30.132812 14.242188 L 28.414062 13.25 C 27.460938 12.699219 26.25 13.023438 25.703125 13.976562 L 23.816406 17.242188 L 21.925781 13.976562 C 21.566406 13.351562 20.921875 12.996094 20.253906 12.980469 Z M 14.882812 20.21875 C 13.785156 20.21875 12.898438 21.105469 12.898438 22.207031 L 12.898438 22.976562 C 12.898438 21.875 13.785156 20.992188 14.882812 20.992188 L 18.660156 20.992188 L 18.214844 20.222656 Z M 29.414062 20.21875 L 28.972656 20.992188 L 32.746094 20.992188 C 33.84375 20.992188 34.730469 21.875 34.730469 22.972656 L 34.730469 22.207031 C 34.730469 21.105469 33.84375 20.222656 32.746094 20.222656 Z M 18.214844 26.945312 L 16.769531 29.441406 C 16.519531 29.878906 16.453125 30.367188 16.542969 30.820312 C 16.582031 30.613281 16.660156 30.40625 16.769531 30.214844 L 18.660156 26.945312 Z M 28.972656 26.945312 L 30.859375 30.214844 C 30.96875 30.40625 31.046875 30.613281 31.085938 30.820312 C 31.175781 30.367188 31.109375 29.878906 30.859375 29.441406 L 29.414062 26.945312 Z M 28.972656 26.945312 "/>
<path style=" stroke:none;fill-rule:nonzero;fill:rgb(0%,0%,0%);fill-opacity:0.235294;" d="M 31.0625 16.453125 C 31.019531 16.625 30.949219 16.792969 30.859375 16.953125 L 28.972656 20.222656 L 29.542969 20.222656 L 30.859375 17.945312 C 31.128906 17.472656 31.1875 16.941406 31.0625 16.453125 Z M 16.566406 16.453125 C 16.441406 16.941406 16.5 17.472656 16.769531 17.945312 L 18.085938 20.222656 L 18.660156 20.222656 L 16.769531 16.953125 C 16.679688 16.792969 16.613281 16.625 16.566406 16.453125 Z M 12.898438 24.191406 L 12.898438 25.183594 C 12.898438 26.28125 13.785156 27.167969 14.882812 27.167969 L 18.085938 27.167969 L 18.660156 26.175781 L 14.882812 26.175781 C 13.785156 26.175781 12.898438 25.289062 12.898438 24.191406 Z M 34.730469 24.191406 C 34.730469 25.289062 33.84375 26.175781 32.746094 26.175781 L 28.972656 26.175781 L 29.542969 27.167969 L 32.746094 27.167969 C 33.84375 27.167969 34.730469 26.28125 34.730469 25.183594 Z M 23.816406 29.152344 L 21.925781 32.421875 C 21.378906 33.371094 20.167969 33.695312 19.214844 33.144531 L 17.496094 32.152344 C 17.015625 31.875 16.695312 31.429688 16.566406 30.933594 C 16.347656 31.777344 16.707031 32.6875 17.496094 33.144531 L 19.214844 34.140625 C 20.167969 34.6875 21.378906 34.363281 21.925781 33.414062 L 23.816406 30.144531 L 25.703125 33.414062 C 26.25 34.363281 27.460938 34.6875 28.414062 34.140625 L 30.132812 33.144531 C 30.921875 32.6875 31.28125 31.777344 31.0625 30.933594 C 30.933594 31.429688 30.613281 31.875 30.132812 32.152344 L 28.414062 33.144531 C 27.460938 33.695312 26.25 33.371094 25.703125 32.421875 Z M 23.816406 29.152344 "/>
<path style="fill:none;stroke-width:3;stroke-linecap:round;stroke-linejoin:round;stroke:rgb(12.941177%,12.941177%,12.941177%);stroke-opacity:1;stroke-miterlimit:4;" d="M 303.054393 -73.680162 C 292.888697 -79.554601 279.973264 -76.096598 274.140488 -65.930902 L 254.017409 -31.100895 L 233.852668 -65.930902 C 228.019892 -76.096598 215.104459 -79.554601 204.938763 -73.680162 L 186.60718 -63.097839 C 176.483147 -57.265063 173.025144 -44.34963 178.85792 -34.183934 L 199.022661 0.646073 L 158.734842 0.646073 C 147.027626 0.646073 137.570196 10.103504 137.570196 21.852382 L 137.570196 43.017027 C 137.570196 54.724243 147.027626 64.181673 158.734842 64.181673 L 199.022661 64.181673 L 178.85792 99.01168 C 173.025144 109.177376 176.483147 122.092809 186.60718 127.925586 L 204.938763 138.507908 C 215.104459 144.382347 228.019892 140.924344 233.852668 130.800311 L 254.017409 95.928641 L 274.140488 130.800311 C 279.973264 140.924344 292.888697 144.382347 303.054393 138.507908 L 321.385976 127.925586 C 331.510009 122.092809 334.968012 109.177376 329.135236 99.01168 L 309.012157 64.181673 L 349.258314 64.181673 C 360.96553 64.181673 370.42296 54.724243 370.42296 43.017027 L 370.42296 21.852382 C 370.42296 10.103504 360.96553 0.646073 349.258314 0.646073 L 309.012157 0.646073 L 329.135236 -34.183934 C 334.968012 -44.34963 331.510009 -57.265063 321.385976 -63.097839 Z M 303.054393 -73.680162 " transform="matrix(0.093759,0,0,0.093759,0,20.158175)"/>
</g>
</svg>
